static/img/kroki/0dd5a150facd807e2b3845a3aaa97724.svg

<?xml version="1.0" encoding="us-ascii" standalone="no"?><svg xmlns="http://www.w3.org/2000/svg" xmlns:xlink="http://www.w3.org/1999/xlink" contentStyleType="text/css" height="374px" preserveAspectRatio="none" style="width:457px;height:374px;" version="1.1" viewBox="0 0 457 374" width="457px" zoomAndPan="magnify"><defs/><g><!--class azure_network_express_route_cross_connection--><g id="elem_azure_network_express_route_cross_connection"><rect codeLine="23" fill="#3D176E" height="39.7891" id="azure_network_express_route_cross_connection" rx="2.5" ry="2.5" style="stroke:#000D19;stroke-width:0.5;" width="443" x="7" y="328.58"/><ellipse cx="22" cy="348.4745" fill="#ADD1B2" rx="11" ry="11" style="stroke:#181818;stroke-width:1.0;"/><path d="M24.9688,354.1152 Q24.3906,354.412 23.75,354.5527 Q23.1094,354.7089 22.4063,354.7089 Q19.9063,354.7089 18.5781,353.0683 Q17.2656,351.412 17.2656,348.287 Q17.2656,345.162 18.5781,343.5058 Q19.9063,341.8495 22.4063,341.8495 Q23.1094,341.8495 23.75,342.0058 Q24.4063,342.162 24.9688,342.4589 L24.9688,345.1777 Q24.3438,344.5995 23.75,344.3339 Q23.1563,344.0527 22.5313,344.0527 Q21.1875,344.0527 20.5,345.1308 Q19.8125,346.1933 19.8125,348.287 Q19.8125,350.3808 20.5,351.4589 Q21.1875,352.5214 22.5313,352.5214 Q23.1563,352.5214 23.75,352.2558 Q24.3438,351.9745 24.9688,351.3964 L24.9688,354.1152 Z " fill="#000000"/><text fill="#D9B8FF" font-family="Helvetica" font-size="17" lengthAdjust="spacing" textLength="401" x="41" y="354.3598">azure_network_express_route_cross_connection</text></g><!--class microsoft_resource--><g id="elem_microsoft_resource"><rect codeLine="26" fill="#3D176E" height="39.7891" id="microsoft_resource" rx="2.5" ry="2.5" style="stroke:#000D19;stroke-width:0.5;" width="200" x="128.5" y="167.79"/><ellipse cx="143.5" cy="187.6845" fill="#ADD1B2" rx="11" ry="11" style="stroke:#181818;stroke-width:1.0;"/><path d="M146.4688,193.3252 Q145.8906,193.622 145.25,193.7627 Q144.6094,193.9189 143.9063,193.9189 Q141.4063,193.9189 140.0781,192.2783 Q138.7656,190.622 138.7656,187.497 Q138.7656,184.372 140.0781,182.7158 Q141.4063,181.0595 143.9063,181.0595 Q144.6094,181.0595 145.25,181.2158 Q145.9063,181.372 146.4688,181.6689 L146.4688,184.3877 Q145.8438,183.8095 145.25,183.5439 Q144.6563,183.2627 144.0313,183.2627 Q142.6875,183.2627 142,184.3408 Q141.3125,185.4033 141.3125,187.497 Q141.3125,189.5908 142,190.6689 Q142.6875,191.7314 144.0313,191.7314 Q144.6563,191.7314 145.25,191.4658 Q145.8438,191.1845 146.4688,190.6064 L146.4688,193.3252 Z " fill="#000000"/><text fill="#D9B8FF" font-family="Helvetica" font-size="17" lengthAdjust="spacing" textLength="158" x="162.5" y="193.5698">microsoft_resource</text></g><!--class resource--><g id="elem_resource"><rect codeLine="29" fill="#3D176E" height="39.7891" id="resource" rx="2.5" ry="2.5" style="stroke:#000D19;stroke-width:0.5;" width="113" x="172" y="7"/><ellipse cx="187" cy="26.8945" fill="#ADD1B2" rx="11" ry="11" style="stroke:#181818;stroke-width:1.0;"/><path d="M189.9688,32.5352 Q189.3906,32.832 188.75,32.9727 Q188.1094,33.1289 187.4063,33.1289 Q184.9063,33.1289 183.5781,31.4883 Q182.2656,29.832 182.2656,26.707 Q182.2656,23.582 183.5781,21.9258 Q184.9063,20.2695 187.4063,20.2695 Q188.1094,20.2695 188.75,20.4258 Q189.4063,20.582 189.9688,20.8789 L189.9688,23.5977 Q189.3438,23.0195 188.75,22.7539 Q188.1563,22.4727 187.5313,22.4727 Q186.1875,22.4727 185.5,23.5508 Q184.8125,24.6133 184.8125,26.707 Q184.8125,28.8008 185.5,29.8789 Q186.1875,30.9414 187.5313,30.9414 Q188.1563,30.9414 188.75,30.6758 Q189.3438,30.3945 189.9688,29.8164 L189.9688,32.5352 Z " fill="#000000"/><text fill="#D9B8FF" font-family="Helvetica" font-size="17" lengthAdjust="spacing" textLength="71" x="206" y="32.7798">resource</text></g><!--reverse link microsoft_resource to azure_network_express_route_cross_connection--><g id="link_microsoft_resource_azure_network_express_route_cross_connection"><path codeLine="32" d="M228.5,225.84 C228.5,256.36 228.5,297.69 228.5,328.25 " fill="none" id="microsoft_resource-backto-azure_network_express_route_cross_connection" style="stroke:#FFAF37;stroke-width:2.0;"/><polygon fill="none" points="228.5,207.84,222.5,225.84,234.5,225.84,228.5,207.84" style="stroke:#FFAF37;stroke-width:2.0;"/></g><!--reverse link resource to microsoft_resource--><g id="link_resource_microsoft_resource"><path codeLine="33" d="M228.5,65.05 C228.5,95.57 228.5,136.9 228.5,167.46 " fill="none" id="resource-backto-microsoft_resource" style="stroke:#FFAF37;stroke-width:2.0;"/><polygon fill="none" points="228.5,47.05,222.5,65.05,234.5,65.05,228.5,47.05" style="stroke:#FFAF37;stroke-width:2.0;"/></g><!--SRC=[bP9FRy8m3CNl_HIHE2F1q5QGTW6aQRkWQUnUXSI1g6rSEUuwsFRTrmusXPO_sYto-zdlsSh6QX2G5xmLEUGh81_vrBf2aip5b0YhEMP8ecUCDAEuBJwWuwl0GkOW7Y5x0xPAjedNZLMf0-_5JI3Df4hNXANJ-_5CqlbQ0iS1DS-azrDcigkI8GYZ9wknCMsoFRGtqiFu3ZeOaWOw88F1G0ydRUIgrSMz_uYbtO4OXaTR84CdPiVYXxgOiY62a9r5V_Mp6P-brjQjnMrGUzbd8WTqL5zkfCQgeOtCV6ZZ6GYGjmNCErl1PAnDV19-EWT7gZcTaBkI87705LAQm7j1zVz9QfuXKOJrMw5peDYY4nzHz7NeossZek6aRi2I58JgSUq4U__Px_V_PHwrUhj3esy0]--></g></svg>

<svg xmlns="http://www.w3.org/2000/svg" width="457" height="374" viewBox="0 0 457 374"><rect width="443" height="39.789" x="7" y="328.58" fill="#3D176E" rx="2.5" ry="2.5" style="stroke:#000d19;stroke-width:.5"/><circle cx="22" cy="348.474" r="11" fill="#ADD1B2" style="stroke:#181818;stroke-width:1"/><path d="M24.969 354.115q-.578.297-1.219.438-.64.156-1.344.156-2.5 0-3.828-1.64-1.312-1.657-1.312-4.782t1.312-4.781q1.328-1.656 3.828-1.656.703 0 1.344.156.656.156 1.219.453v2.719q-.625-.579-1.219-.844-.594-.281-1.219-.281-1.343 0-2.031 1.078-.687 1.062-.687 3.156t.687 3.172q.688 1.062 2.031 1.062.625 0 1.219-.265.594-.281 1.219-.86z"/><text x="41" y="354.36" fill="#D9B8FF" font-family="Helvetica" font-size="17" textLength="401">azure_network_express_route_cross_connection</text><rect width="200" height="39.789" x="128.5" y="167.79" fill="#3D176E" rx="2.5" ry="2.5" style="stroke:#000d19;stroke-width:.5"/><circle cx="143.5" cy="187.685" r="11" fill="#ADD1B2" style="stroke:#181818;stroke-width:1"/><path d="M146.469 193.325q-.578.297-1.219.438-.64.156-1.344.156-2.5 0-3.828-1.64-1.312-1.657-1.312-4.782t1.312-4.781q1.328-1.656 3.828-1.656.703 0 1.344.156.656.156 1.219.453v2.719q-.625-.578-1.219-.844-.594-.281-1.219-.281-1.344 0-2.031 1.078-.687 1.062-.687 3.156t.687 3.172q.688 1.062 2.031 1.062.625 0 1.219-.265.594-.281 1.219-.86z"/><text x="162.5" y="193.57" fill="#D9B8FF" font-family="Helvetica" font-size="17" textLength="158">microsoft_resource</text><rect width="113" height="39.789" x="172" y="7" fill="#3D176E" rx="2.5" ry="2.5" style="stroke:#000d19;stroke-width:.5"/><circle cx="187" cy="26.895" r="11" fill="#ADD1B2" style="stroke:#181818;stroke-width:1"/><path d="M189.969 32.535q-.578.297-1.219.438-.64.156-1.344.156-2.5 0-3.828-1.64-1.312-1.657-1.312-4.782t1.312-4.781q1.328-1.656 3.828-1.656.703 0 1.344.156.656.156 1.219.453v2.719q-.625-.578-1.219-.844-.594-.281-1.219-.281-1.344 0-2.031 1.078-.687 1.062-.687 3.156t.687 3.172q.688 1.062 2.031 1.062.625 0 1.219-.265.594-.281 1.219-.86z"/><text x="206" y="32.78" fill="#D9B8FF" font-family="Helvetica" font-size="17" textLength="71">resource</text><path fill="none" d="M228.5 225.84v102.41m0-120.41-6 18h12zm0-142.79v102.41m0-120.41-6 18h12z" style="stroke:#ffaf37;stroke-width:2"/></svg>
